X: 874
T: Mairi's Wedding
O: Scotland
Z: Richard Robinson 
R: polka
M: 4/4
Z: Contributed 20031117122202 by Bernard Castelein bcla@freegates.be
K: D
D>E DE FG A2|BA EG BA B<e|\
D>E DE FG A2|BA EG D2 D2||
d>e dc BA E2|BG EG BA B<e|\
d>e dc BA E2|BA EG D2 D2|]
